X:421
T: Kaiser Max von Mexiko (140), S. 314f
N: T0309
O: Luxemburg
S: Luxemburg]
N: Junglinster, hhh Vater des Autors, vor 1900
R: historische, Kriegs- und Soldatenlieder]
M: 6/8
L: 1/8
K: G
D | G2GGFG | AAz3
D | A2AABc | B2z3
B | B2BBcd | e3ed
c | G2GA2A | d2z3
B | B2BBcd | e3ed
c | G2GB2A | G2z3

@@@ Tune index: 8475
